assets/images/Social/Icons/teleg.svg

<svg width="100" height="100" viewBox="0 0 100 100" fill="none" xmlns="http://www.w3.org/2000/svg">
<circle cx="50" cy="50" r="50" fill="#F7C24D"/>
<path d="M66.4351 34.2095L32.7744 47.1897C30.4772 48.1124 30.4905 49.3939 32.3529 49.9653L40.9949 52.6612L60.9901 40.0456C61.9356 39.4703 62.7994 39.7798 62.0894 40.4101L45.8893 55.0306H45.8855L45.8893 55.0325L45.2932 63.9403C46.1665 63.9403 46.5519 63.5397 47.0417 63.067L51.2393 58.9852L59.9706 65.4344C61.5806 66.3211 62.7367 65.8654 63.1373 63.9441L68.869 36.932C69.4556 34.5798 67.971 33.5147 66.4351 34.2095Z" fill="#010107"/>
</svg>

<svg xmlns="http://www.w3.org/2000/svg" width="100" height="100" fill="none" viewBox="0 0 100 100"><circle cx="50" cy="50" r="50" fill="#F7C24D"/><path fill="#010107" d="M66.435 34.21l-33.66 12.98c-2.298.922-2.284 2.204-.422 2.775l8.642 2.696L60.99 40.046c.946-.576 1.81-.266 1.1.364l-16.2 14.62h-.005l.004.002-.596 8.908c.873 0 1.259-.4 1.749-.873l4.197-4.082 8.732 6.45c1.61.886 2.766.43 3.166-1.49l5.732-27.013c.587-2.352-.898-3.417-2.434-2.723z"/></svg>
